svg/UnitedNations-Flags/flag-cy.svg

<svg height="256" viewBox="0 0 1000 600" width="256" xmlns="http://www.w3.org/2000/svg"><path fill="#fff" d="m0 0h1000v600h-1000z"/><path d="m427.66 185.59c0 7.68.96 8.64 1.44 10.08.48 1.44 1.08 27.839-2.88 35.04-3.96 7.201-11.76 11.28-14.88 12-3.12.72-12.96-6.24-22.08-9.12-9.12-2.88-8.64-2.4-12.479-2.4-3.839 0-12.48 3.239-14.88 5.28-1.56-.24-1.92-.96-2.88 0-.959.96-4.8 4.8-5.76 7.2-.96 2.4-3.359 11.521-6.24 12.48-2.88.96-10.68 8.759-15.84 9.121-5.159.36-3.72-.24-7.2-.48-3.479-.24-3.84-3.84-7.2-5.76-3.359-1.92-4.32-3.36-4.32-3.36 0 0-.96-3.84-2.4-3.84-1.439 0-2.879 6.721-2.879 8.641 0 1.92 3.839 9.12 5.76 10.559 1.92 1.44 1.92 10.08.96 12.48-.96 2.4 1.92 4.801 2.399 7.2.48 2.4-2.879 4.319-1.439 4.8 1.439.479 3.36 3.359 3.36 6.24 0 2.88 7.2 3.84 8.64 6.72 1.44 2.88 1.92 7.68 2.4 10.561.48 2.88 2.16 1.56 2.399 8.64 2.28 1.08 5.76 3.359 8.64 4.8 2.88 1.44 2.401 4.8 6.24 6.24 3.84 1.439 3.84 0 5.76.479 1.92.48-.96.961 2.4 1.92 3.361.96 4.8-.479 7.681.96 2.88 1.44 4.32 4.801 6.24 5.761 1.92.96 10.08 3.359 10.56 3.84.48.479 5.76 2.4 6.72 2.4.96 0 3.84-1.921 3.84-1.921 0 0 3.36.96 6.24 0 2.88-.959 4.8-3.84 6.72-3.84 1.92 0 2.4.96 4.32.96 1.92 0 4.799-.96 4.799-.96 0 0 4.32-.96 7.68.96 3.36 1.921 11.04 11.04 11.04 14.881 0 3.839-.479 5.76-.479 5.76 0 0 3.839-.481 5.279.479 1.44.961 1.32-.839 12 .961-.72-2.641-11.04-10.08-1.44-20.641 9.6-10.561 10.2-6.24 12.48-8.159 2.28-1.921 11.04-7.562 25.92-2.401 14.4-2.399 3.84-4.319 12-4.799 1.44-.601 4.201.119 7.201.96.96-1.801 3-3.48 6.24-2.881.6-1.68 4.559-3.96 8.639-4.319.601-3.241 10.921-7.319 16.801-7.681 2.399-2.16 5.16-11.76 18.24-7.2.479-3.119 2.64-8.16 6.24-9.12.72-6.479-1.682-19.561 4.8-24 6.479-5.88 12.6-4.561 23.52-4.319 7.44 1.56 11.04 7.199 13.439 7.68 2.4.48 3.36.48 6.24-1.439 2.88-1.921-.479-5.761 1.92-5.761 2.4 0 1.439.48 5.28 0 3.84-.479 3.36-1.8 5.76-2.399 3.841 1.921 8.16.479 10.08 1.92 1.921 1.439 2.16 1.319 6.24 1.92 1.439 2.399 5.279 2.399 5.279 2.399 0 0-2.879-.96-1.919-2.399.96-1.44 0-5.761-1.921-7.681-1.919-1.92-2.879-2.4-4.319-4.319-1.439-1.92.479-1.921-1.921-4.32-2.399-2.4-7.679-4.8-9.119-7.68-1.439-2.88-.96-4.8-3.36-7.2-2.399-2.4-12-10.56-12.479-19.2-.479-8.64.479-16.919 6.239-19.68-.24-5.04.961-5.76 6.24-8.64 5.279-2.88 5.762-.96 9.12-.96 3.359 0 5.281.48 8.64-1.919 3.36-2.4.48-7.68 9.12-15.36 8.641-7.68 12-11.52 14.881-12 2.88-.48 13.319-7.8 17.76-7.2 3.12-3.719 6.24-8.16 10.08-11.04 3.84-2.88 8.161-2.88 10.08-5.28 1.92-2.4 1.439-6.721 7.2-10.561 5.76-3.839 10.561-6.239 12.96-8.16 2.399-1.92 7.68-.48 9.6-2.4 1.92-1.92 1.92-9.12 3.839-10.56 1.921-1.44-6.239 3.36-10.559 5.28-4.32 1.92-10.56 5.28-15.84 4.8-5.28-.48-2.401 2.879-5.28 3.84-2.88.96-7.68.48-9.601 2.4-1.92 1.92-5.279 6.72-8.159 8.64-2.881 1.919-4.32 1.44-7.2 2.88-2.881 1.44-5.28 2.88-7.68 3.84-2.4.96-9.601.48-9.601.48 0 0-6.24 8.16-9.12 11.04-2.88 2.88-6.24 2.4-9.12 3.84-2.88 1.439-27.36 17.28-44.16 19.68-16.801 2.399-9.121-1.44-14.4 0-5.279 1.44-12.961 11.519-19.2 12-6.24.48-8.16 0-9.6 0-1.44 0-9.12 4.8-13.92 3.84-7.08 2.16-12.359 1.68-14.4 1.439-2.04-.239-5.76 2.4-11.04 0-4.08-1.319-4.08 1.56-11.999-.959-7.921-2.52-13.441.96-17.281-.96-3.84-1.92-3.36-3.36-6.24-3.36-2.88 0-2.88 1.92-6.24 1.92-3.36 0-3.84-1.92-6.72-1.92-2.88 0-6.24 1.92-10.56 1.44-4.32-.48-5.76-2.4-8.64-2.4-2.881-.003-18.721-6.723-18.721-6.723" fill="#ed8000"/><g fill="#006651"><path d="m476.76 478.8c8.334-6 15.666-8 27-10 11.334-2 23.334-5.332 29.666-7 6.332-1.668-21.332 8-28.332 10-7 2-28.334 7-28.334 7"/><path d="m522.43 461.13c-2.332-14.332 3.332-29.332 16.332-35.33 3 10.332-6.332 28-16.332 35.33"/><path d="m544.38 453.67c-6.951-11.873 4.814-27.19 13.432-34.697 3.951 7.156-3.049 28.49-13.432 34.697"/><path d="m564.77 444.47c-7.432-10.182 1.332-28 10.666-35 3.666 10 0 28-10.666 35"/><path d="m585.15 431.73c-6.723-9.602-2.055-24.602 7.611-34.27 7 8 1 25.335-7.611 34.27"/><path d="m601.43 418.8c-5.666-9 1.334-30.668 10.334-36.668 4 8 1 30.668-10.334 36.668"/><path d="m614.43 415.47c-1.666-13 21-27.334 30.334-27-1 10.666-10.668 22.334-30.334 27"/><path d="m601.77 430.13c10.666-11 31.33-11 38.666-8.666-2 6.334-26.332 20.332-38.666 8.666"/><path d="m587.1 441.13c15-4 24.668-7.334 33.668 2-6.334 8-30.668 5.666-33.668-2"/><path d="m565.77 450.8c14.332-7.668 31.666 3.666 34.33 10.332-16 6.668-34.664-8.664-34.33-10.332"/><path d="m546.1 461.8c13-5 28 1.668 34 9-7 3.332-25.334 7-34-9"/><path d="m528.1 467.47c15-1.666 29.393 9.686 32.529 16.18-19.2 1.824-26.529-3.842-32.529-16.18"/><path d="m523.27 478.8c-8.334-6-15.666-8-27-10-11.334-2-23.334-5.332-29.667-7-6.333-1.668 21.333 8 28.333 10 7 2 28.334 7 28.334 7"/><path d="m477.6 461.13c2.333-14.332-3.332-29.332-16.333-35.33-3 10.332 6.333 28 16.333 35.33"/><path d="m455.65 453.67c6.951-11.873-4.814-27.19-13.432-34.697-3.951 7.156 3.049 28.49 13.432 34.697"/><path d="m435.27 444.47c7.432-10.182-1.332-28-10.666-35-3.666 10 0 28 10.666 35"/><path d="m414.88 431.73c6.723-9.602 2.055-24.602-7.611-34.27-7 8-1 25.335 7.611 34.27"/><path d="m398.6 418.8c5.666-9-1.334-30.668-10.334-36.668-4 8-1 30.668 10.334 36.668"/><path d="m385.6 415.47c1.666-13-21-27.334-30.334-27 1 10.666 10.668 22.334 30.334 27"/><path d="m398.27 430.13c-10.666-11-31.33-11-38.666-8.666 2 6.334 26.332 20.332 38.666 8.666"/><path d="m412.93 441.13c-15-4-24.668-7.334-33.668 2 6.334 8 30.668 5.666 33.668-2"/><path d="m434.27 450.8c-14.332-7.668-31.666 3.666-34.33 10.332 16 6.668 34.664-8.664 34.33-10.332"/><path d="m453.93 461.8c-13-5-28 1.668-34 9 7 3.332 25.334 7 34-9"/><path d="m471.93 467.47c-15-1.666-29.394 9.686-32.53 16.18 19.2 1.824 26.53-3.842 32.53-16.18"/></g></svg>

<?xml version="1.0" encoding="UTF-8" standalone="no"?>
<svg height="256" id="svg2663" inkscape:output_extension="org.inkscape.output.svg.inkscape" inkscape:version="0.46" sodipodi:docname="Flag_of_Cyprus.svg" sodipodi:version="0.32" version="1.0" viewBox="0 0 1000 600" width="256" xmlns="http://www.w3.org/2000/svg" xmlns:cc="http://creativecommons.org/ns#" xmlns:dc="http://purl.org/dc/elements/1.1/" xmlns:inkscape="http://www.inkscape.org/namespaces/inkscape" xmlns:rdf="http://www.w3.org/1999/02/22-rdf-syntax-ns#" xmlns:sodipodi="http://sodipodi.sourceforge.net/DTD/sodipodi-0.dtd" xmlns:svg="http://www.w3.org/2000/svg">
  <metadata>
    <rdf:RDF xmlns:cc="http://web.resource.org/cc/" xmlns:dc="http://purl.org/dc/elements/1.1/" xmlns:rdf="http://www.w3.org/1999/02/22-rdf-syntax-ns#">
      <cc:Work rdf:about="">
        <dc:title></dc:title>
        <dc:description></dc:description>
        <dc:subject>
          <rdf:Bag>
            <rdf:li>unsorted</rdf:li>
          </rdf:Bag>
        </dc:subject>
        <dc:publisher>
          <cc:Agent rdf:about="http://www.openclipart.org/">
            <dc:title>Open Clip Art Library, Source: Wikimedia Commons, Source: Wikimedia Commons, Source: Wikimedia Commons, Source: Wikimedia Commons</dc:title>
          </cc:Agent>
        </dc:publisher>
        <dc:creator>
          <cc:Agent>
            <dc:title></dc:title>
          </cc:Agent>
        </dc:creator>
        <dc:rights>
          <cc:Agent>
            <dc:title></dc:title>
          </cc:Agent>
        </dc:rights>
        <dc:date></dc:date>
        <dc:format>image/svg+xml</dc:format>
        <dc:type rdf:resource="http://purl.org/dc/dcmitype/StillImage"/>
        <cc:license rdf:resource="http://en.wikipedia.org/wiki/Public_domain"/>
        <dc:language>en</dc:language>
      </cc:Work>
    </rdf:RDF>
  </metadata>
  <defs id="defs2719">
    <inkscape:perspective id="perspective2723" inkscape:persp3d-origin="515 : 206 : 1" inkscape:vp_x="0 : 309 : 1" inkscape:vp_y="0 : 1000 : 0" inkscape:vp_z="1030 : 309 : 1" sodipodi:type="inkscape:persp3d"/>
  </defs>
  <sodipodi:namedview bordercolor="#666666" borderopacity="1.0" gridtolerance="10.0" guidetolerance="10.0" id="base" inkscape:current-layer="svg2663" inkscape:cx="239.43856" inkscape:cy="309" inkscape:pageopacity="0.0" inkscape:pageshadow="2" inkscape:window-height="674" inkscape:window-width="640" inkscape:window-x="42" inkscape:window-y="76" inkscape:zoom="0.54271845" objecttolerance="10.0" pagecolor="#ffffff" showgrid="false"/>
  <rect height="600" id="rect2665" style="fill:#ffffff" width="1000" x="0" y="0"/>
  <path d="M 427.656,185.589 C 427.656,193.269 428.616,194.229 429.096,195.669 C 429.576,197.109 430.176,223.508 426.216,230.709 C 422.256,237.91 414.456,241.989 411.336,242.709 C 408.216,243.429 398.376,236.469 389.255,233.589 C 380.135,230.709 380.615,231.189 376.776,231.189 C 372.937,231.189 364.296,234.428 361.896,236.469 C 360.336,236.229 359.976,235.509 359.016,236.469 C 358.057,237.429 354.216,241.269 353.256,243.669 C 352.296,246.069 349.897,255.19 347.016,256.149 C 344.136,257.109 336.336,264.908 331.176,265.27 C 326.017,265.63 327.456,265.03 323.976,264.79 C 320.497,264.55 320.136,260.95 316.776,259.03 C 313.417,257.11 312.456,255.67 312.456,255.67 C 312.456,255.67 311.496,251.83 310.056,251.83 C 308.617,251.83 307.177,258.551 307.177,260.471 C 307.177,262.391 311.016,269.591 312.937,271.03 C 314.857,272.47 314.857,281.111 313.897,283.51 C 312.937,285.91 315.817,288.311 316.296,290.71 C 316.776,293.11 313.417,295.029 314.857,295.51 C 316.296,295.989 318.217,298.869 318.217,301.75 C 318.217,304.63 325.417,305.59 326.857,308.47 C 328.297,311.35 328.777,316.15 329.257,319.031 C 329.737,321.911 331.417,320.591 331.656,327.671 C 333.936,328.751 337.416,331.03 340.296,332.471 C 343.176,333.911 342.697,337.271 346.536,338.711 C 350.376,340.15 350.376,338.711 352.296,339.19 C 354.216,339.67 351.336,340.151 354.696,341.11 C 358.057,342.07 359.496,340.631 362.377,342.07 C 365.257,343.51 366.697,346.871 368.617,347.831 C 370.537,348.791 378.697,351.19 379.177,351.671 C 379.657,352.15 384.937,354.071 385.897,354.071 C 386.857,354.071 389.737,352.15 389.737,352.15 C 389.737,352.15 393.097,353.11 395.977,352.15 C 398.857,351.191 400.777,348.31 402.697,348.31 C 404.617,348.31 405.097,349.27 407.017,349.27 C 408.937,349.27 411.816,348.31 411.816,348.31 C 411.816,348.31 416.136,347.35 419.496,349.27 C 422.856,351.191 430.536,360.311 430.536,364.151 C 430.536,367.99 430.057,369.911 430.057,369.911 C 430.057,369.911 433.896,369.43 435.336,370.39 C 436.776,371.351 436.656,369.551 447.336,371.351 C 446.616,368.71 436.296,361.271 445.896,350.71 C 455.496,340.149 456.096,344.47 458.376,342.551 C 460.656,340.63 469.416,334.989 484.296,340.15 C 498.696,337.751 488.136,335.831 496.296,335.351 C 497.736,334.75 500.497,335.47 503.497,336.311 C 504.457,334.51 506.497,332.831 509.737,333.43 C 510.337,331.75 514.296,329.47 518.376,329.111 C 518.977,325.87 529.297,321.792 535.177,321.43 C 537.576,319.27 540.337,309.67 553.417,314.23 C 553.896,311.111 556.057,306.07 559.657,305.11 C 560.377,298.631 557.975,285.549 564.457,281.11 C 570.936,275.23 577.057,276.549 587.977,276.791 C 595.417,278.351 599.017,283.99 601.416,284.471 C 603.816,284.951 604.776,284.951 607.656,283.032 C 610.536,281.111 607.177,277.271 609.576,277.271 C 611.976,277.271 611.015,277.751 614.856,277.271 C 618.696,276.792 618.216,275.471 620.616,274.872 C 624.457,276.793 628.776,275.351 630.696,276.792 C 632.617,278.231 632.856,278.111 636.936,278.712 C 638.375,281.111 642.215,281.111 642.215,281.111 C 642.215,281.111 639.336,280.151 640.296,278.712 C 641.256,277.272 640.296,272.951 638.375,271.031 C 636.456,269.111 635.496,268.631 634.056,266.712 C 632.617,264.792 634.535,264.791 632.135,262.392 C 629.736,259.992 624.456,257.592 623.016,254.712 C 621.577,251.832 622.056,249.912 619.656,247.512 C 617.257,245.112 607.656,236.952 607.177,228.312 C 606.698,219.672 607.656,211.393 613.416,208.632 C 613.176,203.592 614.377,202.872 619.656,199.992 C 624.935,197.112 625.418,199.032 628.776,199.032 C 632.135,199.032 634.057,199.512 637.416,197.113 C 640.776,194.713 637.896,189.433 646.536,181.753 C 655.177,174.073 658.536,170.233 661.417,169.753 C 664.297,169.273 674.736,161.953 679.177,162.553 C 682.297,158.834 685.417,154.393 689.257,151.513 C 693.097,148.633 697.418,148.633 699.337,146.233 C 701.257,143.833 700.776,139.512 706.537,135.672 C 712.297,131.833 717.098,129.433 719.497,127.512 C 721.896,125.592 727.177,127.032 729.097,125.112 C 731.017,123.192 731.017,115.992 732.936,114.552 C 734.857,113.112 726.697,117.912 722.377,119.832 C 718.057,121.752 711.817,125.112 706.537,124.632 C 701.257,124.152 704.136,127.511 701.257,128.472 C 698.377,129.432 693.577,128.952 691.656,130.872 C 689.736,132.792 686.377,137.592 683.497,139.512 C 680.616,141.431 679.177,140.952 676.297,142.392 C 673.416,143.832 671.017,145.272 668.617,146.232 C 666.217,147.192 659.016,146.712 659.016,146.712 C 659.016,146.712 652.776,154.872 649.896,157.752 C 647.016,160.632 643.656,160.152 640.776,161.592 C 637.896,163.031 613.416,178.872 596.617,181.272 C 579.816,183.671 587.496,179.832 582.217,181.272 C 576.938,182.712 569.256,192.791 563.017,193.272 C 556.777,193.752 554.857,193.272 553.417,193.272 C 551.977,193.272 544.297,198.072 539.497,197.112 C 532.417,199.272 527.138,198.792 525.097,198.551 C 523.057,198.312 519.337,200.951 514.057,198.551 C 509.977,197.232 509.977,200.111 502.058,197.592 C 494.137,195.072 488.617,198.552 484.777,196.632 C 480.937,194.712 481.417,193.272 478.537,193.272 C 475.657,193.272 475.657,195.192 472.297,195.192 C 468.937,195.192 468.457,193.272 465.577,193.272 C 462.697,193.272 459.337,195.192 455.017,194.712 C 450.697,194.232 449.257,192.312 446.377,192.312 C 443.496,192.309 427.656,185.589 427.656,185.589 z" id="Cyprus" style="fill:#ed8000"/>
  <g id="g2668" style="fill:#006651">
    <path d="M 476.765,478.801 C 485.099,472.801 492.431,470.801 503.765,468.801 C 515.099,466.801 527.099,463.469 533.431,461.801 C 539.763,460.133 512.099,469.801 505.099,471.801 C 498.099,473.801 476.765,478.801 476.765,478.801 z" id="path2670"/>
    <path d="M 522.432,461.133 C 520.1,446.801 525.764,431.801 538.764,425.801 C 541.764,436.133 532.432,453.801 522.432,461.133 z" id="path2672"/>
    <path d="M 544.383,453.674 C 537.432,441.801 549.197,426.486 557.815,418.977 C 561.766,426.133 554.766,447.467 544.383,453.674 z" id="path2674"/>
    <path d="M 564.766,444.467 C 557.334,434.285 566.098,416.467 575.432,409.467 C 579.098,419.467 575.432,437.467 564.766,444.467 z" id="path2676"/>
    <path d="M 585.154,431.734 C 578.431,422.132 583.099,407.132 592.765,397.466 C 599.766,405.467 593.766,422.801 585.154,431.734 z" id="path2678"/>
    <path d="M 601.432,418.801 C 595.766,409.801 602.766,388.133 611.766,382.133 C 615.766,390.133 612.766,412.801 601.432,418.801 z" id="path2680"/>
    <path d="M 614.432,415.467 C 612.766,402.467 635.434,388.133 644.766,388.467 C 643.766,399.133 634.098,410.801 614.432,415.467 z" id="path2682"/>
    <path d="M 601.766,430.133 C 612.432,419.133 633.098,419.133 640.432,421.467 C 638.432,427.801 614.1,441.799 601.766,430.133 z" id="path2684"/>
    <path d="M 587.098,441.133 C 602.098,437.133 611.766,433.799 620.766,443.133 C 614.432,451.133 590.098,448.799 587.098,441.133 z" id="path2686"/>
    <path d="M 565.766,450.801 C 580.098,443.133 597.432,454.467 600.098,461.133 C 584.098,467.801 565.434,452.469 565.766,450.801 z" id="path2688"/>
    <path d="M 546.098,461.801 C 559.098,456.801 574.098,463.469 580.098,470.801 C 573.098,474.133 554.764,477.801 546.098,461.801 z" id="path2690"/>
    <path d="M 528.1,467.467 C 543.1,465.801 557.493,477.153 560.629,483.643 C 541.432,485.467 534.1,479.801 528.1,467.467 z" id="path2692"/>
    <path d="M 523.268,478.801 C 514.934,472.801 507.602,470.801 496.268,468.801 C 484.934,466.801 472.934,463.469 466.601,461.801 C 460.268,460.133 487.934,469.801 494.934,471.801 C 501.934,473.801 523.268,478.801 523.268,478.801 z" id="path2694"/>
    <path d="M 477.6,461.133 C 479.933,446.801 474.268,431.801 461.267,425.801 C 458.267,436.133 467.6,453.801 477.6,461.133 z" id="path2696"/>
    <path d="M 455.649,453.674 C 462.6,441.801 450.835,426.486 442.217,418.977 C 438.266,426.133 445.266,447.467 455.649,453.674 z" id="path2698"/>
    <path d="M 435.266,444.467 C 442.698,434.285 433.934,416.467 424.6,409.467 C 420.934,419.467 424.6,437.467 435.266,444.467 z" id="path2700"/>
    <path d="M 414.877,431.734 C 421.6,422.132 416.932,407.132 407.266,397.466 C 400.266,405.467 406.266,422.801 414.877,431.734 z" id="path2702"/>
    <path d="M 398.6,418.801 C 404.266,409.801 397.266,388.133 388.266,382.133 C 384.266,390.133 387.266,412.801 398.6,418.801 z" id="path2704"/>
    <path d="M 385.6,415.467 C 387.266,402.467 364.598,388.133 355.266,388.467 C 356.266,399.133 365.934,410.801 385.6,415.467 z" id="path2706"/>
    <path d="M 398.266,430.133 C 387.6,419.133 366.934,419.133 359.6,421.467 C 361.6,427.801 385.932,441.799 398.266,430.133 z" id="path2708"/>
    <path d="M 412.934,441.133 C 397.934,437.133 388.266,433.799 379.266,443.133 C 385.6,451.133 409.934,448.799 412.934,441.133 z" id="path2710"/>
    <path d="M 434.266,450.801 C 419.934,443.133 402.6,454.467 399.934,461.133 C 415.934,467.801 434.598,452.469 434.266,450.801 z" id="path2712"/>
    <path d="M 453.934,461.801 C 440.934,456.801 425.934,463.469 419.934,470.801 C 426.934,474.133 445.268,477.801 453.934,461.801 z" id="path2714"/>
    <path d="M 471.933,467.467 C 456.933,465.801 442.539,477.153 439.403,483.643 C 458.6,485.467 465.933,479.801 471.933,467.467 z" id="path2716"/>
  </g>
</svg>
